X:1
T:Psalm 25
T:Psalm 25
T:Claude Goudimel (1514-1572)
T:© 2012 by Paul R Marchesano. May be freely copied for nonprofit use.
T:© 2012 by Paul R Marchesano. May be freely copied for nonprofit use.
T:© 2012 by Paul R Marchesano. May be freely copied for nonprofit use.
T:© 2012 by Paul R Marchesano. May be freely copied for nonprofit use.
T:© 2012 by Paul R Marchesano. May be freely copied for nonprofit use.
T:© 2012 by Paul R Marchesano. May be freely copied for nonprofit use.
C:Claude Goudimel
C:(1514-1572)
Z:© 2012 by Paul R Marchesano. May be freely copied for nonprofit use.
%%score [ 1 2 3 4 ]
L:1/8
Q:1/4=140
M:2/2
K:A
V:1 treble nm="Soprano" snm="S"
V:2 treble nm="Alto" snm="A"
V:3 treble-8 nm="Tenor" snm="T"
V:4 bass nm="Bass" snm="B"
V:1
 B8 | B4 B4 | c4 c4 | d6 cB | A2 B4 ^A2 | B4 c4 | d6 cB | A8 | z4 B4- | B4 B4 | A6 Bc | %11
w: Bo-|nus et|re- ctus|Do- * *|* * mi-|nus _|_ _ _||pro-|* pte-||
 d3 c d2 c2 | d2 c2 B2 c2- | cB B4 ^A2 | B4 c4 | d4 e4 | d2 e4 c2 | d4 d2 c2- | cF B4 ^A2 | B4 z4 | %20
w: * * * re-|a _ do- ce-||bit _|pec- *|ca- to- res|vi- am su-||am.|
 F2 G2 A2 B2 | G2 F2 z4 | z4 A2 B2 | c2 d2 B2 A2 | z8 | c2 d2 e2 f2 | d2 c2 z4 | z4 A4 | A2 A2 A4 | %29
w: Di- ri- get man-|sue- tos.|Di- ri-|get man- sue- tos||in _ ju- di-|ti- o|et|do- ce- bit|
 z2 B2 B2 B2 | A2 F2 B4- | B2 ^AG A4 | B4 z2 G2 | B2 B2 G4 | z2 c2 c2 c2 | A4 z2 d2 | d2 d2 B4 | %37
w: hu- mi- les|vi- am su-||am u-|ni- ver- sae|vi- a e-|jus man-|sue- tu- do|
 z2 e2 e2 e2 | c4 z2 f2 | f2 f2 d2 d2 | B4 z2 e2 | e2 e2 c2 c2 | A4 z2 d2 | d2 d2 B2 B2 | %44
w: et ver- i-|tas cu-|sto- di- en- ti-|bus te-|sta- men- tum e-|jus et|te- sti- mo- ni-|
 =G4 z2 c2 | c2 c2 A2 A2 | F4 z2 f2 | f2 f2 d2 d2 | B4 z2 f2 | f2 f2 d2 d2 | B4 c4 | d6 cB | %52
w: a pro-|pter no- men tu-|um, pro-|pter no- men tu-|um, pro-|pter no- men tu-|um par-|ce de- *|
 c4 B2 c2- | cB B4 ^A2 | B8- | B8- | B8 |] %57
w: li- cto me-||o.|_||
V:2
 F8 | F4 G4 | A8 | A6 =G2 | F2 E2 F4 | G4 A4 | F4 B,4 | C4 D4 | E8 | F4 G4 | F8 | A6 G2 | %12
w: Bo-|nus et|re-|ctus Do-|* * mi-|nus _|_ Do-||mi-|nus _|_|pro- *|
 A4 G2 A2 | B2 E2 F4- | F2 G2 A4 | z4 z2 E2 | F2 G2 A4 | z2 A4 =G2 | F2 =G2 F4 | FEDC B,4 | %20
w: pte- * re-|a do- ce-|* * bit|pec-|ca- to- res|vi- am|su- * *|am. _ _ _ _|
 z2 B,2 C2 D2 | E2 D2 B,2 z2 | z4 z2 D2 | E2 F2 =G2 F2 | D2 z2 z4 | z2 F2 =G2 A2 | B2 A2 F2 z2 | %27
w: Di- ri- get|man- sue- tos.|Di-|ri- get man- sue-|tos|in _ ju-|di- ti- o|
 A4 F2 F2 | F2 F2 F4 | z2 F2 F2 F2 | F4 B,4 | C8 | D4 z4 | z4 z2 E2 | E2 E2 C4 | z2 F2 F2 F2 | %36
w: et _ et|do- ce- bit|hu- mi- les|vi- am|su-|am|u-|ni- ver- sae|vi- a e-|
 D4 z2 =G2 | =G2 G2 E4 | z2 A2 A2 A2 | F4 z2 B2 | B2 B2 =G2 G2 | E4 z2 A2 | A2 A2 F2 F2 | %43
w: jus man-|sue- tu- do|et ver- i-|tas cu-|sto- di- en- ti-|bus te-|sta- men- tum e-|
 D4 z2 =G2 | =G2 G2 E2 E2 | C4 z2 F2 | F2 F2 D2 D2 | B,4 z2 F2 | F2 F2 D2 D2 | B,4 z2 F2 | %50
w: jus et|te- sti- mo- ni-|a pro-|pter no- men tu-|um, pro-|pter no- men tu-|um par-|
 F2 G2 A4 | A4 A4 | A4 G2 A2- | A=GFE F4 | z2 =G4 FE | D3 E F4- | F8 |] %57
w: ce de- li-|cto me-|o, de- li-|* * * * cto|me- * *|* * o.|_|
V:3
 B8 | d4 d4 | e6 fe | f6 ed | c2 B2 c4 | z4 e4 | d4 e4 | f8 | =g6 fe | d4 e4 | c8 | f6 e2 | %12
w: Bo-|nus et|re- * *||* * ctus|Do-|mi- nus|pro-|pte- * *|re- *|a|pro- *|
 f2 e2 d2 e2 | B4 c4 | d4 e4 | z2 B2 c2 A2 | d4 e4 | d2 f4 e2 | d2 e2 c4 | B4 z4 | z8 | %21
w: pte- re- a do-|ce- *|bit _|do- ce- bit|pec- *|ca- to- res|vi- am su-|am.||
 z2 F2 G2 A2 | B2 G2 F2 z2 | z4 z2 A2 | B2 c2 d2 B2 | A2 z2 z4 | z2 c2 d2 e2 | f2 d2 c2 B2 | %28
w: Di- ri- get|man- sue- tos.|Di-|ri- get man- sue-|tos|in _ ju-|di- ti- o et|
 c2 c2 c4 | z2 d2 d2 d2 | c2 d4 e2 | f4 f2 f2 | d2 B2 B2 B2 | G4 z2 c2 | c2 c2 A4 | z2 d2 d2 d2 | %36
w: do- ce- bit|hu- mi- les|vi- am _|vi- am su-|am u- ni- ver-|sae vi-|a e- jus|man- sue- tu-|
 B4 z2 e2 | e2 e2 c4 | z2 f2 f2 f2 | d2 d2 B4 | z2 e2 e2 e2 | c2 c2 A4 | z2 d2 d2 d2 | B2 B2 =G4 | %44
w: do et|ver- i- tas|cu- sto- di-|en- ti- bus|te- sta- men-|tum e- jus|et te- sti-|mo- ni- a|
 z2 c2 c2 c2 | A2 A2 F4 | z2 f2 f2 f2 | d2 d2 B4 | z2 f2 f2 f2 | d2 d2 B4 | z2 d2 e4 | f6 ed | %52
w: pro- pter no-|men tu- um,|pro- pter no-|men tu- um,|pro- pter no-|men tu- um,|par- ce|de- * *|
 e4 d2 e2- | ed B2 c4 | B8- | B8- | B8 |] %57
w: * * li-|* * cto me-|o.|_||
V:4
 B,8 | B,4 B,4 | A,4 A,4 | D,6 E,2 | F,2 =G,2 F,4 | B,4 A,4 | B,4 =G,4 | F,8 | E,8 | z4 E,4 | F,8 | %11
w: Bo-|nus et|re- ctus|Do- *|* mi- nus|pro- pte-|re- *|a|_|pro-|pte-|
 D,6 E,2 | D,2 A,2 B,2 A,2 | =G,4 F,4 | B,4 A,4 | B,4 A,2 C2 | B,4 A,4 | D,6 E,2 | F,2 E,2 F,4 | %19
w: re- *|a do- ce- bit|pec- *|ca- *|to- res vi-|* am|su- *||
 B,,8 | z4 z2 B,,2 | C,2 D,2 E,2 D,2 | B,,2 z2 z4 | z2 D,2 E,2 F,2 | =G,2 F,2 D,2 z2 | z4 z2 F,2 | %26
w: am.|Di-|ri- get man- sue-|tos.|Di- ri- get|man- sue- tos|in|
 =G,2 A,2 B,2 G,2 | F,2 F,2 F,4 | F,4 F,4 | z2 B,,2 B,,2 B,,2 | F,4 =G,4 | F,4 F,4 | B,,4 z4 | %33
w: _ ju- di- ti-|o et do-|ce- bit|hu- mi- les|vi- am|_ su-|am|
 z2 E,2 E,2 E,2 | C,4 z2 F,2 | F,2 F,2 D,4 | z2 =G,2 G,2 G,2 | E,4 z2 A,2 | A,2 A,2 F,4 | %39
w: u- ni- ver-|sae vi-|a e- jus|man- sue- tu-|do et|ver- i- tas|
 z2 B,2 B,2 B,2 | =G,2 G,2 E,4 | z2 A,2 A,2 A,2 | F,2 F,2 D,4 | z2 =G,2 G,2 G,2 | E,2 E,2 C,4 | %45
w: cu- sto- di-|en- ti- bus|te- sta- men-|tum e- jus|et te- sti-|mo- ni- a|
 z2 F,2 F,2 F,2 | D,2 D,2 B,,4 | z2 B,,2 B,,2 B,,2 | B,,4 z2 B,,2 | B,,2 B,,2 B,,4 | B,4 A,2 A,2 | %51
w: pro- pter no-|men tu- um,|pro- pter no-|men no-|men tu- um,|par- ce de-|
 D,4 D,4 | A,4 B,2 A,2- | A,2 =G,2 F,4 | B,,8- | B,,8- | B,,8 |] %57
w: li- cto|me- * *||o.|_||

